X: 18401
T: Hunt, The
R: hornpipe
M: 4/4
K: Gmajor
|:G>A (3BAG A>GE>G|c>d (3edc d>cB>a|G>AB>G A>GE>D|E<A (3AAA (3ABc B>A|
G>AB>G A>G (3EFG|c>Bc>d e>f (3gfe|d>B (3GAB A>GE>D|E>G (3GGG G2:|
G>AB>c (3ded d>e|=f2 (3fed e2 e>d|(3efe e>d e>fg>e|(3ded d>e d>BA>B|
c2 c>d e>dc>B|A2 (3GAB (3ABA G>E|G2 g>a g>ed>B|A2 A>B (3ABA G>E|
G>A (3BAG A>G (3EFG|c>Bc>d e>fg>e|d>B (3GAB A>GE>D|E>G (3GGG G2:|

